logo-icons/insta.svg

<svg xmlns="http://www.w3.org/2000/svg" viewBox="0 0 32 32" enable-background="new 0 0 32 32"><style type="text/css">.st0{fill:#7C666D;}</style><path class="st0" d="M23.3 7.6h-14.6c-.6 0-1.1.5-1.1 1.1v14.6c0 .6.5 1.1 1.1 1.1h14.6c.6 0 1.1-.5 1.1-1.1v-14.6c0-.6-.5-1.1-1.1-1.1zm-7.3 5.5c.9 0 1.7.4 2.2 1 .5.5.8 1.2.8 2 0 1.7-1.3 3-3 3-1.6 0-3-1.3-3-3 0-.8.3-1.5.8-2 .5-.6 1.3-1 2.2-1zm6.7 8.8c0 .5-.4.9-.9.9h-11.6c-.5 0-.9-.4-.9-.9v-7.7h2.5c-.3.6-.4 1.2-.4 1.9 0 2.5 2 4.5 4.5 4.5s4.5-2 4.5-4.5c0-.7-.1-1.3-.4-1.9h2.5v7.7zm0-10c0 .4-.3.7-.7.7h-1.8c-.4 0-.7-.3-.7-.7v-1.8c0-.4.3-.7.7-.7h1.8c.4 0 .7.3.7.7v1.8zm-6.7-11.9c-8.8 0-16 7.2-16 16s7.2 16 16 16 16-7.2 16-16-7.2-16-16-16zm0 30c-7.7 0-14-6.3-14-14s6.3-14 14-14 14 6.3 14 14-6.3 14-14 14z" id="Icons"/></svg>

<?xml version="1.0" encoding="utf-8"?>
<!-- Generator: Adobe Illustrator 19.1.0, SVG Export Plug-In . SVG Version: 6.00 Build 0)  -->
<!DOCTYPE svg PUBLIC "-//W3C//DTD SVG 1.1//EN" "http://www.w3.org/Graphics/SVG/1.1/DTD/svg11.dtd">
<svg version="1.1" xmlns="http://www.w3.org/2000/svg" xmlns:xlink="http://www.w3.org/1999/xlink" x="0px" y="0px"
	 viewBox="0 0 32 32" style="enable-background:new 0 0 32 32;" xml:space="preserve">
<style type="text/css">
	.st0{fill:#7C666D;}
</style>
<g id="Buttons">
</g>
<g id="Layer_1">
</g>
<g id="Icons">
	<path class="st0" d="M23.3,7.6H8.7c-0.6,0-1.1,0.5-1.1,1.1v14.6c0,0.6,0.5,1.1,1.1,1.1h14.6c0.6,0,1.1-0.5,1.1-1.1V8.7
		C24.4,8.1,23.9,7.6,23.3,7.6z M16,13.1c0.9,0,1.7,0.4,2.2,1c0.5,0.5,0.8,1.2,0.8,2c0,1.7-1.3,3-3,3c-1.6,0-3-1.3-3-3
		c0-0.8,0.3-1.5,0.8-2C14.3,13.5,15.1,13.1,16,13.1z M22.7,21.9c0,0.5-0.4,0.9-0.9,0.9H10.2c-0.5,0-0.9-0.4-0.9-0.9v-7.7h2.5
		c-0.3,0.6-0.4,1.2-0.4,1.9c0,2.5,2,4.5,4.5,4.5s4.5-2,4.5-4.5c0-0.7-0.1-1.3-0.4-1.9h2.5V21.9z M22.7,11.9c0,0.4-0.3,0.7-0.7,0.7
		h-1.8c-0.4,0-0.7-0.3-0.7-0.7v-1.8c0-0.4,0.3-0.7,0.7-0.7h1.8c0.4,0,0.7,0.3,0.7,0.7V11.9z"/>
	<path class="st0" d="M16,0C7.2,0,0,7.2,0,16c0,8.8,7.2,16,16,16c8.8,0,16-7.2,16-16C32,7.2,24.8,0,16,0z M16,30C8.3,30,2,23.7,2,16
		C2,8.3,8.3,2,16,2s14,6.3,14,14C30,23.7,23.7,30,16,30z"/>
</g>
</svg>
